X:1
T:Jernbane Damp Galopp
C:Hans Christian Lumbye
Q:Larghetto
K:C
M:3/4
L:1/4
V:1 name="Trumpet in Bb 1" snm="Tpt 1"
!p!(G3/2 c/B/c/ | e3) | (G3/2 c/B/c/ | e3) | (e3/2 c/B/A/ | B2) (E | A3/2 A/^G/A/ | B2) B | P:1 !<(! (c2 e) !<)! | !>(! g3 !>)! | !<(! (c2 e) !<)! |
!>(! f3 !>)! | !<(! (c2 e) !<)! | !>(! (e3/2 c/B/A/ !>)! | (A3/2 G/F/E/) | (G3/2 D/A/B/ | c2) ^D |
V:2 name="Trumpet in Bb 2" snm="Tpt 2"
Z7 | z z !p! G | P:1 !<(! (G2 e) !<)! |
